X: 1121
T: Will You Come Down to Limerick?
R:slip jig
N:"First Setting"  "Collected by Ennis"
B:O'Neill's 1121
Z:Transcribed by Michael Hogan
M:9/8
L:1/8
K:G
d"S"| cAG GDG G2d | cAG GFG Add | cAG GDG G2A |
[1 FGA =fed cAd :|2 FGA =fed cAG||
def gaf g2f  | def gbg afd | cde =fge f2d | cde =fed cA^F |
def gaf g2f  | def gbg afd | bag agf g2d | cde =fed cAG ||
BGB AFA G2A | BAB GBd cBA | BGB AFA G2A | FGA =fed cA^F |
BGB AFA G2A | BAB GBd cBA | fdf ece d2A | FGA =fed cAG "S"||


